styles/twemoji/1f54b.svg

<svg xmlns="http://www.w3.org/2000/svg" viewBox="0 0 45 45"><defs><clipPath id="a"><path d="M0 36h36V0H0v36z"/></clipPath><clipPath id="b"><path d="M5 36a4 4 0 0 1-4-4V4a4 4 0 0 1 4-4h30v32a4 4 0 0 1-4 4H5z"/></clipPath></defs><g clip-path="url(#a)" transform="matrix(1.25 0 0 -1.25 0 45)"><path d="M24 36H5a4 4 0 0 1-4-4V0h23v36z" fill="#292f33"/></g><g clip-path="url(#b)" transform="matrix(1.25 0 0 -1.25 0 45)"><path d="M22 0h14v36H22V0z" fill="#141414"/><path d="M22 23H0v4h22v-4z" fill="#ffd983"/><path d="M36 23H22v4h14v-4z" fill="#ffac33"/><path d="M14 0H6v8a2 2 0 0 0 2 2h4a2 2 0 0 0 2-2V0z" fill="#ffd983"/></g></svg>

<?xml version="1.0" encoding="UTF-8" standalone="no"?><svg xmlns:dc="http://purl.org/dc/elements/1.1/" xmlns:cc="http://creativecommons.org/ns#" xmlns:rdf="http://www.w3.org/1999/02/22-rdf-syntax-ns#" xmlns:svg="http://www.w3.org/2000/svg" xmlns="http://www.w3.org/2000/svg" viewBox="0 0 45 45" style="enable-background:new 0 0 45 45;" xml:space="preserve" version="1.1" id="svg2"><metadata id="metadata8"><rdf:RDF><cc:Work rdf:about=""><dc:format>image/svg+xml</dc:format><dc:type rdf:resource="http://purl.org/dc/dcmitype/StillImage"/></cc:Work></rdf:RDF></metadata><defs id="defs6"><clipPath id="clipPath16" clipPathUnits="userSpaceOnUse"><path id="path18" d="M 0,36 36,36 36,0 0,0 0,36 Z"/></clipPath><clipPath id="clipPath28" clipPathUnits="userSpaceOnUse"><path id="path30" d="M 5,36 C 2.791,36 1,34.209 1,32 L 1,32 1,26 1,10 1,4 C 1,1.791 2.791,0 5,0 l 0,0 30,0 0,10 0,16 0,6 c 0,2.209 -1.791,4 -4,4 l 0,0 -26,0 z"/></clipPath></defs><g transform="matrix(1.25,0,0,-1.25,0,45)" id="g10"><g id="g12"><g clip-path="url(#clipPath16)" id="g14"><g transform="translate(24,36)" id="g20"><path id="path22" style="fill:#292f33;fill-opacity:1;fill-rule:nonzero;stroke:none" d="m 0,0 -19,0 c -2.209,0 -4,-1.791 -4,-4 l 0,-6 0,-16 0,-10 4,0 19,0 0,36 z"/></g></g></g><g id="g24"><g clip-path="url(#clipPath28)" id="g26"><path id="path32" style="fill:#141414;fill-opacity:1;fill-rule:nonzero;stroke:none" d="M 22,0 36,0 36,36 22,36 22,0 Z"/><path id="path34" style="fill:#ffd983;fill-opacity:1;fill-rule:nonzero;stroke:none" d="m 22,23 -22,0 0,4 22,0 0,-4 z"/><path id="path36" style="fill:#ffac33;fill-opacity:1;fill-rule:nonzero;stroke:none" d="m 36,23 -14,0 0,4 14,0 0,-4 z"/><g transform="translate(14,0)" id="g38"><path id="path40" style="fill:#ffd983;fill-opacity:1;fill-rule:nonzero;stroke:none" d="m 0,0 -8,0 0,8 c 0,1.105 0.896,2 2,2 l 4,0 C -0.895,10 0,9.105 0,8 L 0,0 Z"/></g></g></g></g></svg>
